icons/circle/src/status/symbolic/semi-starred-symbolic.svg

<svg version="1.1" viewBox="0 0 16 16" xmlns="http://www.w3.org/2000/svg">
 <g>
  <path class="warning" d="m7.959 1c-0.38233 0.016107-0.72199 0.24886-0.875 0.59961l-1.4883 3.4004h-3.8457c-0.91921 0.0010387-1.3507 1.137-0.66406 1.748l2.9941 2.6523-1.5215 4.2637c-0.31475 0.88725 0.65851 1.6786 1.4629 1.1895l3.9785-2.4316c1-0.68347 1-0.50198 1-1.584v-6.5527-2.4141-0.080078l-0.083984-0.19141c-0.15922-0.364-0.51871-0.59933-0.91602-0.59961-0.013672-2.803e-4 -0.027348-2.803e-4 -0.04102 0zm0.04102 1v9.25l-4.5 2.75 1.75-4.8984-3.5-3.1016h4.5z" fill="#f9c440"/>
  <path class="warning" d="m8 2-1.75 4h-4.5l3.5 3.1016-1.75 4.8984 4.5-2.75z" fill="#f9c440" opacity=".3"/>
  <path d="m8 1c0.096602 6.89e-5 0.19145 0.014685 0.28125 0.041016a1.0006 1.0006 0 0 0-0.28125-0.041016zm0.29883 0.046875c0.087747 0.027509 0.16972 0.067387 0.24609 0.11719a1.0006 1.0006 0 0 0-0.24609-0.11719zm0.25 0.11914c0.0765 0.050377 0.14658 0.10981 0.20703 0.17969a1.0006 1.0006 0 0 0-0.20703-0.17969zm0.21875 0.19336c0.05958 0.071437 0.10996 0.15226 0.14844 0.24023a1.0006 1.0006 0 0 0-0.14844-0.24023zm0.23242 0.43164v0.080078 2.4141l0.75 1.7148h4.5l-3.5 3.1016 1.75 4.8984-3.6289-2.2168c-0.12587 0.17341-0.37459 0.29932-0.87109 0.63867l3.9785 2.4316a1.0006 1.0006 0 0 0 1.4629-1.1895l-1.5215-4.2637 2.9941-2.6523a1.0006 1.0006 0 0 0-0.66406-1.748h-3.8457l-1.4043-3.209z" fill="#555761" opacity=".75"/>
 </g>
</svg>

<svg viewBox="0 0 16 16" xmlns="http://www.w3.org/2000/svg"><path class="warning" d="M7.959 1a1 1 0 00-.875.6L5.596 5H1.75C.83 5.001.4 6.137 1.086 6.748L4.08 9.4l-1.521 4.264c-.315.887.658 1.679 1.462 1.19L8 12.422c1-.684 1-.502 1-1.584V1.79L8.916 1.6a1 1 0 00-.957-.6zM8 2v9.25L3.5 14l1.75-4.898L1.75 6h4.5z" fill="#f9c440"/><path class="warning" d="M8 2L6.25 6h-4.5l3.5 3.102L3.5 14 8 11.25z" fill="#f9c440" opacity=".3"/><path d="M8 1c.097 0 .191.015.281.041A1 1 0 008 1zm.299.047c.088.027.17.067.246.117a1 1 0 00-.246-.117zm.25.119c.076.05.146.11.207.18a1 1 0 00-.207-.18zm.219.193c.06.072.11.153.148.24a1 1 0 00-.148-.24zM9 1.791v2.494L9.75 6h4.5l-3.5 3.102L12.5 14l-3.629-2.217c-.126.174-.374.3-.871.639l3.979 2.431a1 1 0 001.462-1.189L11.92 9.4l2.994-2.652A1 1 0 0014.25 5h-3.846L9 1.791z" fill="#363636" opacity=".75"/></svg>
